**harm	**harte	**silbe	**silbe	**rhyme	**timestamp	**phrase	**leadinstrument	**kern
*M4/4	*M4/4	*	*	*	*	*	*	*
*	*	*	*	*	*	*	*	*
*	*	*	*	*	*	*	*	*
*g#:	*g#:	*	*	*	*	*	*	*g#:
*	*	*	*	*	*	*	*	*
*	*	*	*	*	*	*	*	*
1r;	N	.	.	.	0	.	r	1r;
=1	=1	=1	=1	=1	=1	=1	=1	=1
*>Letter>A	*>Letter>A	*>Letter>A	*>Letter>A	*>Letter>A	*>Letter>A	*>Letter>A	*>Letter>A	*>Letter>A
*>Label>Intro	*>Label>Intro	*>Label>Intro	*>Label>Intro	*>Label>Intro	*>Label>Intro	*>Label>Intro	*>Label>Intro	*>Label>Intro
1i7	G#:min7	.	.	.	0.325	newline	synth	1G# 1b 1dd# 1ff##
=2	=2	=2	=2	=2	=2	=2	=2	=2
1i7	G#:min7	.	.	.	2.808	.	synth	1G# 1b 1dd# 1ff##
=3	=3	=3	=3	=3	=3	=3	=3	=3
1-VIIe	F#:maj/2	.	.	.	5.291	.	synth	1F# 1a# 1cc#
=4	=4	=4	=4	=4	=4	=4	=4	=4
1-VIIe	F#:maj/2	.	.	.	7.774	.	synth	1F# 1a# 1cc#
=5	=5	=5	=5	=5	=5	=5	=5	=5
1i7	G#:min7	.	.	.	10.257	newline	synth	1G# 1b 1dd# 1ff##
=6	=6	=6	=6	=6	=6	=6	=6	=6
1i7	G#:min7	.	.	.	12.717	.	synth	1G# 1b 1dd# 1ff##
=7	=7	=7	=7	=7	=7	=7	=7	=7
1-VIIe	F#:maj/2	.	.	.	15.176	.	synth	1F# 1a# 1cc#
=8	=8	=8	=8	=8	=8	=8	=8	=8
1-VIIe	F#:maj/2	.	.	.	17.635	.	synth	1F# 1a# 1cc#
.	.	.	.	.	.	.	.	.
.	.	You	.	.	.	.	.	.
=9	=9	=9	=9	=9	=9	=9	=9	=9
*>Letter>A	*>Letter>A	*>Letter>A	*>Letter>A	*>Letter>A	*>Letter>A	*>Letter>A	*>Letter>A	*>Letter>A
*>Label>Verse	*>Label>Verse	*>Label>Verse	*>Label>Verse	*>Label>Verse	*>Label>Verse	*>Label>Verse	*>Label>Verse	*>Label>Verse
1i7	G#:min7	must	.	A	20.094	newline	voice	1G# 1b 1dd# 1ff##
.	.	un-	.	.	.	.	.	.
.	.	-der-	.	.	.	.	.	.
.	.	-stand	.	B	.	.	.	.
.	.	_	.	.	.	.	.	.
.	.	though	.	.	.	.	.	.
.	.	the	.	.	.	.	.	.
=10	=10	=10	=10	=10	=10	=10	=10	=10
1i7	G#:min7	touch	.	A	22.555	.	voice	1G# 1b 1dd# 1ff##
.	.	of	.	.	.	.	.	.
.	.	your	.	.	.	.	.	.
.	.	hand	.	B	.	.	.	.
.	.	_	.	.	.	.	.	.
.	.	make	.	.	.	.	.	.
.	.	my	.	.	.	.	.	.
=11	=11	=11	=11	=11	=11	=11	=11	=11
1-VIIe	F#:maj/2	pulse	.	.	25.015	.	voice	1F# 1a# 1cc#
.	.	re-	.	.	.	.	.	.
.	.	-act	.	C	.	.	.	.
.	.	_	.	.	.	.	.	.
.	.	_	.	.	.	.	.	.
.	.	.	.	.	.	.	.	.
.	.	.	.	.	.	.	.	.
=12	=12	=12	=12	=12	=12	=12	=12	=12
1-VIIe	F#:maj/2	.	.	.	27.476	.	voice	1F# 1a# 1cc#
.	.	.	.	.	.	.	.	.
.	.	That	.	.	.	.	.	.
.	.	it's	.	.	.	.	.	.
=13	=13	=13	=13	=13	=13	=13	=13	=13
1i7	G#:min7	on-	.	.	29.936	newline	voice	1G# 1b 1dd# 1ff##
.	.	-ly	.	.	.	.	.	.
.	.	the	.	.	.	.	.	.
.	.	_	.	.	.	.	.	.
.	.	thrill	.	.	.	.	.	.
.	.	_	.	.	.	.	.	.
.	.	.	.	.	.	.	.	.
.	.	of	.	.	.	.	.	.
=14	=14	=14	=14	=14	=14	=14	=14	=14
1i7	G#:min7	boy	.	.	32.365	.	voice	1G# 1b 1dd# 1ff##
.	.	meet-	.	.	.	.	.	.
.	.	-ing	.	.	.	.	.	.
.	.	girl	.	.	.	.	.	.
.	.	_	.	.	.	.	.	.
.	.	op-	.	.	.	.	.	.
.	.	-po-	.	.	.	.	.	.
=15	=15	=15	=15	=15	=15	=15	=15	=15
1-VIIe	F#:maj/2	-sites	.	.	34.794	.	voice	1F# 1a# 1cc#
.	.	at-	.	.	.	.	.	.
.	.	-tract	.	C	.	.	.	.
.	.	_	.	.	.	.	.	.
.	.	_	.	.	.	.	.	.
.	.	.	.	.	.	.	.	.
.	.	.	.	.	.	.	.	.
.	.	It's	.	.	.	.	.	.
=16	=16	=16	=16	=16	=16	=16	=16	=16
*>Letter>B	*>Letter>B	*>Letter>B	*>Letter>B	*>Letter>B	*>Letter>B	*>Letter>B	*>Letter>B	*>Letter>B
*>Label>Prechorus	*>Label>Prechorus	*>Label>Prechorus	*>Label>Prechorus	*>Label>Prechorus	*>Label>Prechorus	*>Label>Prechorus	*>Label>Prechorus	*>Label>Prechorus
2-VI	E:maj	phys-	.	.	37.223	newline	voice	3...E- 3...g 3...b-
.	.	-i-	.	.	.	.	.	.
.	.	-cal	.	D	.	.	.	.
2-VII	F#:maj	.	.	.	38.455	.	voice	4.F# 4.a# 4.cc#
.	.	_	.	.	.	.	.	.
.	.	.	.	.	.	.	.	.
=17	=17	=17	=17	=17	=17	=17	=17	=17
1-VII	F#:maj	.	.	.	39.686	.	voice	1F# 1a# 1cc#
.	.	.	.	.	.	.	.	.
.	.	On-	.	.	.	.	.	.
.	.	-ly	.	.	.	.	.	.
=18	=18	=18	=18	=18	=18	=18	=18	=18
2-VI	E:maj	log-	.	.	42.149	.	voice	3...E- 3...g 3...b-
.	.	-i-	.	.	.	.	.	.
.	.	-cal	.	D	.	.	.	.
2-VII	F#:maj	.	.	.	43.381	.	voice	4.F# 4.a# 4.cc#
.	.	_	.	.	.	.	.	.
.	.	_	.	.	.	.	.	.
.	.	_	.	.	.	.	.	.
.	.	.	.	.	.	.	.	.
=19	=19	=19	=19	=19	=19	=19	=19	=19
1-VII	F#:maj	.	.	.	44.612	.	voice	1F# 1a# 1cc#
.	.	.	.	.	.	.	.	.
.	.	You	.	.	.	.	.	.
.	.	must	.	.	.	.	.	.
=20	=20	=20	=20	=20	=20	=20	=20	=20
1-VI	E:maj	try	.	.	47.076	newline	voice	1E- 1g 1b-
.	.	to	.	.	.	.	.	.
.	.	ig-	.	.	.	.	.	.
.	.	-nore	.	E	.	.	.	.
.	.	_	.	.	.	.	.	.
.	.	.	.	.	.	.	.	.
.	.	that	.	.	.	.	.	.
.	.	it	.	.	.	.	.	.
=21	=21	=21	=21	=21	=21	=21	=21	=21
1-VII	F#:maj	means	.	.	49.528	.	voice	1F# 1a# 1cc#
.	.	more	.	E	.	.	.	.
.	.	than	.	.	.	.	.	.
.	.	that	.	.	.	.	.	.
.	.	.	.	.	.	.	.	.
.	.	Oh	.	.	.	.	.	.
.	.	_	.	.	.	.	.	.
=22	=22	=22	=22	=22	=22	=22	=22	=22
*>Letter>C	*>Letter>C	*>Letter>C	*>Letter>C	*>Letter>C	*>Letter>C	*>Letter>C	*>Letter>C	*>Letter>C
*>Label>Chorus	*>Label>Chorus	*>Label>Chorus	*>Label>Chorus	*>Label>Chorus	*>Label>Chorus	*>Label>Chorus	*>Label>Chorus	*>Label>Chorus
2i	B:maj	_	.	.	51.98	newline	voice	2G# 2b 2dd#
.	.	.	.	.	.	.	.	.
.	.	What's	.	.	.	.	.	.
2-VII	F#:maj	love	.	.	53.204	.	voice	2F# 2a# 2cc#
.	.	_	.	.	.	.	.	.
.	.	got	.	.	.	.	.	.
.	.	to	.	.	.	.	.	.
.	.	do	.	.	.	.	.	.
=23	=23	=23	=23	=23	=23	=23	=23	=23
2-VI	E:maj	_	.	.	54.428	.	voice	2E- 2g 2b-
.	.	.	.	.	.	.	.	.
.	.	got	.	.	.	.	.	.
.	.	to	.	.	.	.	.	.
.	.	do	.	.	.	.	.	.
2-VII	F#:maj	_	.	.	55.652	.	voice	2F# 2a# 2cc#
.	.	with	.	.	.	.	.	.
.	.	it?	.	.	.	.	.	.
.	.	.	.	.	.	.	.	.
=24	=24	=24	=24	=24	=24	=24	=24	=24
2i	B:maj	.	.	.	56.876	.	voice	2G# 2b 2dd#
.	.	What's	.	.	.	.	.	.
.	.	.	.	.	.	.	.	.
2-VII	F#:maj	love	.	.	58.1	.	voice	2F# 2a# 2cc#
.	.	_	.	.	.	.	.	.
.	.	.	.	.	.	.	.	.
.	.	but	.	.	.	.	.	.
.	.	a	.	.	.	.	.	.
=25	=25	=25	=25	=25	=25	=25	=25	=25
2-VI	E:maj	se-	.	.	59.324	.	voice	2E- 2g 2b-
.	.	-cond	.	.	.	.	.	.
.	.	hand	.	.	.	.	.	.
.	.	e-	.	.	.	.	.	.
2-VII	F#:maj	-mo-	.	(F	60.548	.	voice	2F# 2a# 2cc#
.	.	-tion	.	f)	.	.	.	.
.	.	_	.	.	.	.	.	.
=26	=26	=26	=26	=26	=26	=26	=26	=26
2i	B:maj	.	.	.	61.772	newline	voice	2G# 2b 2dd#
.	.	What's	.	.	.	.	.	.
2-VII	F#:maj	love	.	.	62.994	.	voice	2F# 2a# 2cc#
.	.	_	.	.	.	.	.	.
.	.	got	.	.	.	.	.	.
.	.	to	.	.	.	.	.	.
.	.	do	.	.	.	.	.	.
=27	=27	=27	=27	=27	=27	=27	=27	=27
2-VI	E:maj	_	.	.	64.216	.	voice	2E- 2g 2b-
.	.	.	.	.	.	.	.	.
.	.	got	.	.	.	.	.	.
.	.	to	.	.	.	.	.	.
.	.	do	.	.	.	.	.	.
2-VII	F#:maj	_	.	.	65.438	.	voice	2F# 2a# 2cc#
.	.	with	.	.	.	.	.	.
.	.	it?	.	.	.	.	.	.
.	.	.	.	.	.	.	.	.
=28	=28	=28	=28	=28	=28	=28	=28	=28
2i	B:maj	Who	.	.	66.66	.	voice	2G# 2b 2dd#
.	.	needs	.	.	.	.	.	.
.	.	a	.	.	.	.	.	.
2-VII	F#:maj	heart	.	.	67.882	.	voice	2F# 2a# 2cc#
.	.	when	.	.	.	.	.	.
.	.	a	.	.	.	.	.	.
.	.	.	.	.	.	.	.	.
=29	=29	=29	=29	=29	=29	=29	=29	=29
2-VI	E:maj	heart	.	.	69.104	.	voice	2E- 2g 2b-
.	.	can	.	.	.	.	.	.
.	.	be	.	.	.	.	.	.
2-VII	F#:maj	bro-	.	(F	70.326	.	voice	2F# 2a# 2cc#
.	.	-ken?	.	f)	.	.	.	.
.	.	_	.	.	.	.	.	.
.	.	It	.	.	.	.	.	.
=30	=30	=30	=30	=30	=30	=30	=30	=30
*>Letter>A	*>Letter>A	*>Letter>A	*>Letter>A	*>Letter>A	*>Letter>A	*>Letter>A	*>Letter>A	*>Letter>A
*>Label>Verse	*>Label>Verse	*>Label>Verse	*>Label>Verse	*>Label>Verse	*>Label>Verse	*>Label>Verse	*>Label>Verse	*>Label>Verse
1i7	G#:min7	may	.	.	71.548	newline	voice	1G# 1b 1dd# 1ff##
.	.	_	.	.	.	.	.	.
.	.	seem	.	.	.	.	.	.
.	.	to	.	.	.	.	.	.
.	.	you	.	G	.	.	.	.
.	.	_	.	.	.	.	.	.
.	.	.	.	.	.	.	.	.
.	.	that	.	.	.	.	.	.
.	.	I'm	.	.	.	.	.	.
=31	=31	=31	=31	=31	=31	=31	=31	=31
1i7	G#:min7	act-	.	.	74.007	.	voice	1G# 1b 1dd# 1ff##
.	.	-ing	.	.	.	.	.	.
.	.	con-	.	.	.	.	.	.
.	.	_	.	.	.	.	.	.
.	.	-fused	.	G	.	.	.	.
.	.	_	.	.	.	.	.	.
.	.	.	.	.	.	.	.	.
.	.	when	.	.	.	.	.	.
.	.	you're	.	.	.	.	.	.
=32	=32	=32	=32	=32	=32	=32	=32	=32
1-VIIe	F#:maj/2	close	.	.	76.465	.	voice	1F# 1a# 1cc#
.	.	to	.	.	.	.	.	.
.	.	me	.	.	.	.	.	.
.	.	_	.	.	.	.	.	.
.	.	_	.	.	.	.	.	.
.	.	_	.	.	.	.	.	.
=33	=33	=33	=33	=33	=33	=33	=33	=33
1-VIIe	F#:maj/2	.	.	.	78.923	.	voice	1F# 1a# 1cc#
.	.	.	.	.	.	.	.	.
.	.	If	.	.	.	.	.	.
.	.	I	.	.	.	.	.	.
=34	=34	=34	=34	=34	=34	=34	=34	=34
1i7	G#:min7	tend	.	.	81.382	newline	voice	1G# 1b 1dd# 1ff##
.	.	to	.	.	.	.	.	.
.	.	look	.	.	.	.	.	.
.	.	_	.	.	.	.	.	.
.	.	dazed	.	H	.	.	.	.
.	.	_	.	.	.	.	.	.
.	.	.	.	.	.	.	.	.
.	.	I	.	.	.	.	.	.
=35	=35	=35	=35	=35	=35	=35	=35	=35
1i7	G#:min7	read	.	.	83.231	.	voice	1G# 1b 1dd# 1ff##
.	.	it	.	.	.	.	.	.
.	.	some	.	.	.	.	.	.
.	.	_	.	.	.	.	.	.
.	.	place	.	H	.	.	.	.
.	.	_	.	.	.	.	.	.
.	.	.	.	.	.	.	.	.
.	.	I've	.	.	.	.	.	.
.	.	got	.	.	.	.	.	.
=36	=36	=36	=36	=36	=36	=36	=36	=36
1-VIIe	F#:maj/2	cause	.	.	85.081	.	voice	1F# 1a# 1cc#
.	.	to	.	.	.	.	.	.
.	.	be	.	I	.	.	.	.
.	.	_	.	.	.	.	.	.
.	.	_	.	.	.	.	.	.
.	.	.	.	.	.	.	.	.
.	.	.	.	.	.	.	.	.
.	.	There's	.	.	.	.	.	.
.	.	a	.	.	.	.	.	.
=37	=37	=37	=37	=37	=37	=37	=37	=37
*>Letter>B	*>Letter>B	*>Letter>B	*>Letter>B	*>Letter>B	*>Letter>B	*>Letter>B	*>Letter>B	*>Letter>B
*>Label>Prechorus	*>Label>Prechorus	*>Label>Prechorus	*>Label>Prechorus	*>Label>Prechorus	*>Label>Prechorus	*>Label>Prechorus	*>Label>Prechorus	*>Label>Prechorus
2-VI	E:maj	name	.	.	88.78	newline	voice	3...E- 3...g 3...b-
.	.	for	.	.	.	.	.	.
.	.	it	.	J	.	.	.	.
2-VII	F#:maj	.	.	.	90	.	voice	4.F# 4.a# 4.cc#
.	.	_	.	.	.	.	.	.
.	.	.	.	.	.	.	.	.
=38	=38	=38	=38	=38	=38	=38	=38	=38
1-VII	F#:maj	.	.	.	91.221	.	voice	1F# 1a# 1cc#
.	.	.	.	.	.	.	.	.
.	.	There's	.	.	.	.	.	.
.	.	a	.	.	.	.	.	.
=39	=39	=39	=39	=39	=39	=39	=39	=39
2-VI	E:maj	phrase	.	.	93.662	.	voice	3...E- 3...g 3...b-
.	.	to	.	.	.	.	.	.
.	.	fits	.	J	.	.	.	.
2-VII	F#:maj	.	.	.	94.882	.	voice	4.F# 4.a# 4.cc#
.	.	_	.	.	.	.	.	.
.	.	_	.	.	.	.	.	.
.	.	_	.	.	.	.	.	.
.	.	_	.	.	.	.	.	.
=40	=40	=40	=40	=40	=40	=40	=40	=40
1-VII	F#:maj	.	.	.	96.103	.	voice	1F# 1a# 1cc#
.	.	.	.	.	.	.	.	.
.	.	But	.	.	.	.	.	.
.	.	what-	.	.	.	.	.	.
=41	=41	=41	=41	=41	=41	=41	=41	=41
1-VI	E:maj	-e-	.	.	98.543	newline	voice	1E- 1g 1b-
.	.	-ver	.	.	.	.	.	.
.	.	the	.	.	.	.	.	.
.	.	_	.	.	.	.	.	.
.	.	rea-	.	I	.	.	.	.
.	.	-son	.	.	.	.	.	.
.	.	.	.	.	.	.	.	.
.	.	you	.	.	.	.	.	.
=42	=42	=42	=42	=42	=42	=42	=42	=42
1-VII	F#:maj	do	.	.	101.014	.	voice	1F# 1a# 1cc#
.	.	it	.	.	.	.	.	.
.	.	for	.	.	.	.	.	.
.	.	me	.	I	.	.	.	.
.	.	.	.	.	.	.	.	.
.	.	Oh	.	.	.	.	.	.
.	.	_	.	.	.	.	.	.
=43	=43	=43	=43	=43	=43	=43	=43	=43
*>Letter>C	*>Letter>C	*>Letter>C	*>Letter>C	*>Letter>C	*>Letter>C	*>Letter>C	*>Letter>C	*>Letter>C
*>Label>Chorus	*>Label>Chorus	*>Label>Chorus	*>Label>Chorus	*>Label>Chorus	*>Label>Chorus	*>Label>Chorus	*>Label>Chorus	*>Label>Chorus
2i	B:maj	_	.	.	103.485	newline	voice	2G# 2b 2dd#
.	.	.	.	.	.	.	.	.
.	.	What's	.	.	.	.	.	.
2-VII	F#:maj	love	.	.	104.709	.	voice	2F# 2a# 2cc#
.	.	_	.	.	.	.	.	.
.	.	got	.	.	.	.	.	.
.	.	to	.	.	.	.	.	.
.	.	do	.	.	.	.	.	.
=44	=44	=44	=44	=44	=44	=44	=44	=44
2-VI	E:maj	_	.	.	105.933	.	voice	2E- 2g 2b-
.	.	.	.	.	.	.	.	.
.	.	got	.	.	.	.	.	.
.	.	to	.	.	.	.	.	.
.	.	do	.	.	.	.	.	.
2-VII	F#:maj	_	.	.	107.157	.	voice	2F# 2a# 2cc#
.	.	with	.	.	.	.	.	.
.	.	it?	.	.	.	.	.	.
.	.	.	.	.	.	.	.	.
=45	=45	=45	=45	=45	=45	=45	=45	=45
2i	B:maj	.	.	.	108.382	.	voice	2G# 2b 2dd#
.	.	What's	.	.	.	.	.	.
2-VII	F#:maj	love	.	.	109.606	.	voice	2F# 2a# 2cc#
.	.	_	.	.	.	.	.	.
.	.	.	.	.	.	.	.	.
.	.	but	.	.	.	.	.	.
.	.	a	.	.	.	.	.	.
=46	=46	=46	=46	=46	=46	=46	=46	=46
2i	E:maj	se-	.	.	110.83	.	voice	2G# 2b 2dd#
.	.	-cond	.	.	.	.	.	.
.	.	hand	.	.	.	.	.	.
.	.	e-	.	.	.	.	.	.
2-VII	F#:maj	-mo-	.	(F	112.054	.	voice	2F# 2a# 2cc#
.	.	-tion	.	f)	.	.	.	.
.	.	_	.	.	.	.	.	.
=47	=47	=47	=47	=47	=47	=47	=47	=47
2i	B:maj	.	.	.	113.279	newline	voice	2G# 2b 2dd#
.	.	What's	.	.	.	.	.	.
2-VII	F#:maj	love	.	.	114.503	.	voice	2F# 2a# 2cc#
.	.	_	.	.	.	.	.	.
.	.	got	.	.	.	.	.	.
.	.	to	.	.	.	.	.	.
.	.	do	.	.	.	.	.	.
=48	=48	=48	=48	=48	=48	=48	=48	=48
2-VI	E:maj	_	.	.	115.728	.	voice	2E- 2g 2b-
.	.	.	.	.	.	.	.	.
.	.	got	.	.	.	.	.	.
.	.	to	.	.	.	.	.	.
.	.	do	.	.	.	.	.	.
2-VII	F#:maj	_	.	.	116.953	.	voice	2F# 2a# 2cc#
.	.	with	.	.	.	.	.	.
.	.	it?	.	.	.	.	.	.
.	.	.	.	.	.	.	.	.
=49	=49	=49	=49	=49	=49	=49	=49	=49
2i	B:maj	Who	.	.	118.177	.	voice	2G# 2b 2dd#
.	.	needs	.	.	.	.	.	.
.	.	a	.	.	.	.	.	.
2-VII	F#:maj	heart	.	.	119.402	.	voice	2F# 2a# 2cc#
.	.	when	.	.	.	.	.	.
.	.	a	.	.	.	.	.	.
.	.	.	.	.	.	.	.	.
=50	=50	=50	=50	=50	=50	=50	=50	=50
2-VI	E:maj	heart	.	.	120.627	.	voice	2E- 2g 2b-
.	.	can	.	.	.	.	.	.
.	.	be	.	.	.	.	.	.
2-VII	F#:maj	bro-	.	(F	121.851	.	voice	2F# 2a# 2cc#
.	.	-ken?	.	f)	.	.	.	.
.	.	_	.	.	.	.	.	.
=51	=51	=51	=51	=51	=51	=51	=51	=51
*>Letter>D	*>Letter>D	*>Letter>D	*>Letter>D	*>Letter>D	*>Letter>D	*>Letter>D	*>Letter>D	*>Letter>D
*>Label>Solo	*>Label>Solo	*>Label>Solo	*>Label>Solo	*>Label>Solo	*>Label>Solo	*>Label>Solo	*>Label>Solo	*>Label>Solo
*C#:	*C#:	*	*	*	*	*	*	*C#:
2I	C#:maj	.	.	.	123.076	newline	harmonica	2.C# 2.e# 2.g#
2V	G#:maj	.	.	.	124.303	.	harmonica	4G# 4b# 4dd#
.	.	Huh	.	.	.	.	.	.
=52	=52	=52	=52	=52	=52	=52	=52	=52
2IV	F#:maj	_	.	.	125.53	.	harmonica	2F# 2a# 2cc#
2V	G#:maj	_	.	.	126.757	.	harmonica	2G# 2b# 2dd#
.	.	_	.	.	.	.	.	.
.	.	_	.	.	.	.	.	.
.	.	.	.	.	.	.	.	.
=53	=53	=53	=53	=53	=53	=53	=53	=53
2I	C#:maj	.	.	.	127.984	.	harmonica	1C# 1e# 1g#
2V	G#:maj	.	.	.	129.211	.	harmonica	2G# 2b# 2dd#
=54	=54	=54	=54	=54	=54	=54	=54	=54
2IV	F#:maj	.	.	.	130.438	.	harmonica	1F# 1a# 1cc#
2V	G#:maj	.	.	.	131.665	.	harmonica	2G# 2b# 2dd#
=55	=55	=55	=55	=55	=55	=55	=55	=55
2I	C#:maj	.	.	.	132.892	newline	harmonica	1C# 1e# 1g#
2V	G#:maj	.	.	.	134.118	.	harmonica	2G# 2b# 2dd#
=56	=56	=56	=56	=56	=56	=56	=56	=56
2IV	F#:maj	.	.	.	135.345	.	harmonica	1F# 1a# 1cc#
2V	G#:maj	.	.	.	136.571	.	harmonica	2G# 2b# 2dd#
=57	=57	=57	=57	=57	=57	=57	=57	=57
2I	C#:maj	.	.	.	137.797	.	harmonica	1C# 1e# 1g#
2V	G#:maj	.	.	.	139.024	.	harmonica	2G# 2b# 2dd#
=58	=58	=58	=58	=58	=58	=58	=58	=58
*M2/4	*M2/4	*	*	*	*M2/4	*M2/4	*M2/4	*
2IV	F#:maj	.	.	.	140.25	.	harmonica	2F# 2a# 2cc#
=59	=59	=59	=59	=59	=59	=59	=59	=59
*>Letter>E	*>Letter>E	*>Letter>E	*>Letter>E	*>Letter>E	*>Letter>E	*>Letter>E	*>Letter>E	*>Letter>E
*>Label>Bridge	*>Label>Bridge	*>Label>Bridge	*>Label>Bridge	*>Label>Bridge	*>Label>Bridge	*>Label>Bridge	*>Label>Bridge	*>Label>Bridge
*M4/4	*M4/4	*	*	*	*M4/4	*M4/4	*M4/4	*
1-VIIe	B:maj/2	.	.	.	141.476	newline	voice	1B 1dd# 1ff#
.	.	I've	.	.	.	.	.	.
.	.	been	.	.	.	.	.	.
.	.	ta-	.	.	.	.	.	.
.	.	-king	.	.	.	.	.	.
.	.	on	.	.	.	.	.	.
.	.	a	.	.	.	.	.	.
=60	=60	=60	=60	=60	=60	=60	=60	=60
1I	C#:maj	new	.	.	143.927	.	voice	1C# 1e# 1g#
.	.	di-	.	.	.	.	.	.
.	.	-rec-	.	(K	.	.	.	.
.	.	_	.	.	.	.	.	.
.	.	-tion	.	k)	.	.	.	.
.	.	_	.	.	.	.	.	.
.	.	_	.	.	.	.	.	.
=61	=61	=61	=61	=61	=61	=61	=61	=61
1-VIIe	B:maj/2	.	.	.	146.377	.	voice	1B 1dd# 1ff#
.	.	.	.	.	.	.	.	.
.	.	But	.	.	.	.	.	.
.	.	I	.	.	.	.	.	.
.	.	have	.	.	.	.	.	.
.	.	_	.	.	.	.	.	.
.	.	to	.	.	.	.	.	.
.	.	say	.	H	.	.	.	.
=62	=62	=62	=62	=62	=62	=62	=62	=62
1I	C#:maj	_	.	.	148.827	.	voice	1C# 1e# 1g#
.	.	_	.	.	.	.	.	.
.	.	_	.	.	.	.	.	.
.	.	.	.	.	.	.	.	.
=63	=63	=63	=63	=63	=63	=63	=63	=63
1-VI	A:maj	.	.	.	151.278	newline	voice	1A 1cc# 1ee
.	.	I've	.	.	.	.	.	.
.	.	been	.	.	.	.	.	.
.	.	think-	.	.	.	.	.	.
.	.	-ing	.	.	.	.	.	.
.	.	a-	.	.	.	.	.	.
.	.	-bout	.	.	.	.	.	.
.	.	my	.	.	.	.	.	.
=64	=64	=64	=64	=64	=64	=64	=64	=64
1-VIId	B:maj/b7	own	.	.	153.732	.	voice	1b 1dd# 1ff#
.	.	pro-	.	.	.	.	.	.
.	.	_	.	.	.	.	.	.
.	.	-tec-	.	(K	.	.	.	.
.	.	-tion	.	k)	.	.	.	.
.	.	.	.	.	.	.	.	.
.	.	It	.	.	.	.	.	.
=65	=65	=65	=65	=65	=65	=65	=65	=65
1v7	G#:min7	scares	.	.	156.187	.	voice	1G# 1b 1dd# 1ff#
.	.	me	.	.	.	.	.	.
.	.	to	.	.	.	.	.	.
.	.	think	.	.	.	.	.	.
.	.	this	.	.	.	.	.	.
.	.	way	.	H	.	.	.	.
.	.	_	.	.	.	.	.	.
=66	=66	=66	=66	=66	=66	=66	=66	=66
1I	C#:maj	_	.	.	158.641	.	voice	1C# 1e# 1g#
.	.	.	.	.	.	.	.	.
.	.	Oh	.	.	.	.	.	.
.	.	_	.	.	.	.	.	.
=67	=67	=67	=67	=67	=67	=67	=67	=67
*>Letter>C	*>Letter>C	*>Letter>C	*>Letter>C	*>Letter>C	*>Letter>C	*>Letter>C	*>Letter>C	*>Letter>C
*>Label>Chorus	*>Label>Chorus	*>Label>Chorus	*>Label>Chorus	*>Label>Chorus	*>Label>Chorus	*>Label>Chorus	*>Label>Chorus	*>Label>Chorus
*a#:	*a#:	*	*	*	*	*	*	*a#:
2i	C#:maj	_	.	.	161.096	newline	voice	2A# 2cc# 2ee#
.	.	.	.	.	.	.	.	.
.	.	What's	.	.	.	.	.	.
2-VII	G#:maj	love	.	.	162.319	.	voice	2G# 2b# 2dd#
.	.	_	.	.	.	.	.	.
.	.	got	.	.	.	.	.	.
.	.	to	.	.	.	.	.	.
.	.	do	.	.	.	.	.	.
=68	=68	=68	=68	=68	=68	=68	=68	=68
2-VI	F#:maj	_	.	.	163.543	.	voice	2F 2a 2cc
.	.	.	.	.	.	.	.	.
.	.	got	.	.	.	.	.	.
.	.	to	.	.	.	.	.	.
.	.	do	.	.	.	.	.	.
2-VII	G#:maj	_	.	.	164.767	.	voice	2G# 2b# 2dd#
.	.	with	.	.	.	.	.	.
.	.	it?	.	.	.	.	.	.
.	.	.	.	.	.	.	.	.
=69	=69	=69	=69	=69	=69	=69	=69	=69
2i	C#:maj	.	.	.	165.991	.	voice	2A# 2cc# 2ee#
.	.	What's	.	.	.	.	.	.
2-VII	G#:maj	love	.	.	167.214	.	voice	2G# 2b# 2dd#
.	.	_	.	.	.	.	.	.
.	.	.	.	.	.	.	.	.
.	.	but	.	.	.	.	.	.
.	.	a	.	.	.	.	.	.
=70	=70	=70	=70	=70	=70	=70	=70	=70
2-VI	F#:maj	se-	.	.	168.438	.	voice	2F 2a 2cc
.	.	-cond	.	.	.	.	.	.
.	.	hand	.	.	.	.	.	.
.	.	e-	.	.	.	.	.	.
2-VII	G#:maj	-mo-	.	(F	169.662	.	voice	2G# 2b# 2dd#
.	.	-tion	.	f)	.	.	.	.
.	.	_	.	.	.	.	.	.
=71	=71	=71	=71	=71	=71	=71	=71	=71
2i	C#:maj	.	.	.	170.886	newline	voice	2A# 2cc# 2ee#
.	.	What's	.	.	.	.	.	.
2-VII	G#:maj	love	.	.	172.118	.	voice	2G# 2b# 2dd#
.	.	_	.	.	.	.	.	.
.	.	got	.	.	.	.	.	.
.	.	to	.	.	.	.	.	.
.	.	do	.	.	.	.	.	.
=72	=72	=72	=72	=72	=72	=72	=72	=72
2-VI	F#:maj	_	.	.	173.35	.	voice	2F 2a 2cc
.	.	.	.	.	.	.	.	.
.	.	got	.	.	.	.	.	.
.	.	to	.	.	.	.	.	.
.	.	do	.	.	.	.	.	.
2-VII	G#:maj	_	.	.	174.583	.	voice	2G# 2b# 2dd#
.	.	with	.	.	.	.	.	.
.	.	it?	.	.	.	.	.	.
.	.	.	.	.	.	.	.	.
=73	=73	=73	=73	=73	=73	=73	=73	=73
2i	C#:maj	Who	.	.	175.815	.	voice	2A# 2cc# 2ee#
.	.	needs	.	.	.	.	.	.
.	.	a	.	.	.	.	.	.
2-VII	G#:maj	heart	.	.	177.047	.	voice	2G# 2b# 2dd#
.	.	when	.	.	.	.	.	.
.	.	a	.	.	.	.	.	.
=74	=74	=74	=74	=74	=74	=74	=74	=74
*M2/4	*M2/4	*	*	*	*M2/4	*M2/4	*M2/4	*
2-VI	F#:maj	heart	.	.	178.279	.	voice	2F 2a 2cc
.	.	can	.	.	.	.	.	.
.	.	be	.	.	.	.	.	.
=75	=75	=75	=75	=75	=75	=75	=75	=75
*M4/4	*M4/4	*	*	*	*M4/4	*M4/4	*M4/4	*
2i	C#:maj	bro-	.	(F	179.512	newline	voice	2A# 2cc# 2ee#
.	.	-ken	What's	f)	.	.	.	.
.	.	_	.	.	.	.	.	.
.	.	.	.	.	.	.	.	.
2-VII	G#:maj	.	love	.	180.741	.	voice	2G# 2b# 2dd#
.	.	.	_	.	.	.	.	.
.	.	got	.	.	.	.	.	.
.	.	to	.	.	.	.	.	.
.	.	do	.	.	.	.	.	.
=76	=76	=76	=76	=76	=76	=76	=76	=76
2-VI	F#:maj	_	.	.	181.971	.	voice	2F 2a 2cc
.	.	.	.	.	.	.	.	.
.	.	got	got	.	.	.	.	.
.	.	to	to	.	.	.	.	.
.	.	do	do	.	.	.	.	.
2-VII	G#:maj	_	_	.	183.2	.	voice	2G# 2b# 2dd#
.	.	with	with	.	.	.	.	.
.	.	it?	it?	.	.	.	.	.
.	.	.	.	.	.	.	.	.
=77	=77	=77	=77	=77	=77	=77	=77	=77
2i	C#:maj	.	.	.	184.43	.	voice	2A# 2cc# 2ee#
.	.	What's?	What's	.	.	.	.	.
.	.	_	.	.	.	.	.	.
2-VII	G#:maj	love	love	.	185.659	.	voice	2G# 2b# 2dd#
.	.	.	_	.	.	.	.	.
.	.	.	.	.	.	.	.	.
.	.	but	.	.	.	.	.	.
.	.	a	.	.	.	.	.	.
=78	=78	=78	=78	=78	=78	=78	=78	=78
2-VI	F#:maj	sweet	.	.	186.889	.	voice	2F 2a 2cc
.	.	old	.	.	.	.	.	.
.	.	fa-	.	.	.	.	.	.
.	.	-shion	.	.	.	.	.	.
2-VII	G#:maj	no-	.	(F	188.118	.	voice	2G# 2b# 2dd#
.	.	-tion	.	f)	.	.	.	.
.	.	_	.	.	.	.	.	.
=79	=79	=79	=79	=79	=79	=79	=79	=79
2i	C#:maj	.	.	.	189.348	newline	voice	2A# 2cc# 2ee#
.	.	What's	What's	.	.	.	.	.
2-VII	G#:maj	love	love	.	190.567	.	voice	2G# 2b# 2dd#
.	.	_	_	.	.	.	.	.
.	.	got	.	.	.	.	.	.
.	.	to	.	.	.	.	.	.
.	.	do	.	.	.	.	.	.
=80	=80	=80	=80	=80	=80	=80	=80	=80
2-VI	F#:maj	_	.	.	191.786	.	voice	2F 2a 2cc
.	.	.	.	.	.	.	.	.
.	.	got	got	.	.	.	.	.
.	.	to	to	.	.	.	.	.
.	.	do	do	.	.	.	.	.
2-VII	G#:maj	_	_	.	193.005	.	voice	2G# 2b# 2dd#
.	.	with	with	.	.	.	.	.
.	.	it?	it?	.	.	.	.	.
.	.	.	.	.	.	.	.	.
=81	=81	=81	=81	=81	=81	=81	=81	=81
2i	C#:maj	Who	.	.	194.224	.	voice	2A# 2cc# 2ee#
.	.	needs	.	.	.	.	.	.
.	.	a	.	.	.	.	.	.
2-VII	G#:maj	heart	.	.	195.443	.	voice	2G# 2b# 2dd#
.	.	.	.	.	.	.	.	.
.	.	.	.	.	.	.	.	.
.	.	when	.	.	.	.	.	.
.	.	a	.	.	.	.	.	.
.	.	.	.	.	.	.	.	.
=82	=82	=82	=82	=82	=82	=82	=82	=82
*M2/4	*M2/4	*	*	*	*M2/4	*M2/4	*M2/4	*
2-VI	F#:maj	heart	.	.	196.661	.	voice	2F 2a 2cc
.	.	can	.	.	.	.	.	.
.	.	be	.	.	.	.	.	.
=83	=83	=83	=83	=83	=83	=83	=83	=83
*M4/4	*M4/4	*	*	*	*M4/4	*M4/4	*M4/4	*
2i	C#:maj	bro-	.	(F	197.88	newline	voice	2A# 2cc# 2ee#
.	.	-ken	What's	f)	.	.	.	.
.	.	_	.	.	.	.	.	.
.	.	.	.	.	.	.	.	.
2-VII	G#:maj	.	love	.	199.11	.	voice	2G# 2b# 2dd#
.	.	.	.	.	.	.	.	.
.	.	.	got	.	.	.	.	.
.	.	.	to	.	.	.	.	.
.	.	.	do	.	.	.	.	.
=84	=84	=84	=84	=84	=84	=84	=84	=84
2-VI	F#:maj	.	_	.	200.34	.	voice	2F 2a 2cc
.	.	.	.	.	.	.	.	.
.	.	Ooh	.	.	.	.	.	.
2-VII	G#:maj	.	.	.	201.569	.	voice	2G# 2b# 2dd#
.	.	_	.	.	.	.	.	.
.	.	.	.	.	.	.	.	.
.	.	got	.	.	.	.	.	.
.	.	to	.	.	.	.	.	.
.	.	do	.	.	.	.	.	.
=85	=85	=85	=85	=85	=85	=85	=85	=85
2i	C#:maj	_	.	.	202.799	.	voice	2A# 2cc# 2ee#
.	.	with	.	.	.	.	.	.
.	.	it?	.	.	.	.	.	.
.	.	.	What's	.	.	.	.	.
2-VII	G#:maj	.	love	.	204.029	.	voice	2G# 2b# 2dd#
.	.	.	.	.	.	.	.	.
.	.	.	but	.	.	.	.	.
.	.	.	a	.	.	.	.	.
=86	=86	=86	=86	=86	=86	=86	=86	=86
2-VI	F#:maj	.	se-	.	205.258	.	voice	2F 2a 2cc
.	.	.	-cond	.	.	.	.	.
.	.	.	hand	.	.	.	.	.
.	.	.	e-	.	.	.	.	.
2-VII	G#:maj	.	-mo-	(F	206.488	.	voice	2G# 2b# 2dd#
.	.	.	-tion	f)	.	.	.	.
.	.	.	_	.	.	.	.	.
=87	=87	=87	=87	=87	=87	=87	=87	=87
*>Label>>Fadeout	*>Label>>Fadeout	*>Label>>Fadeout	*>Label>>Fadeout	*>Label>>Fadeout	*>Label>>Fadeout	*>Label>>Fadeout	*>Label>>Fadeout	*>Label>>Fadeout
2i	C#:maj	.	.	.	207.717	newline	voice	2A# 2cc# 2ee#
.	.	What's	.	.	.	.	.	.
2-VII	G#:maj	love	.	.	208.941	.	voice	2G# 2b# 2dd#
.	.	_	.	.	.	.	.	.
.	.	got	.	.	.	.	.	.
.	.	to	.	.	.	.	.	.
.	.	do	.	.	.	.	.	.
=88	=88	=88	=88	=88	=88	=88	=88	=88
2-VI	F#:maj	_	.	.	210.165	.	voice	2F 2a 2cc
.	.	.	.	.	.	.	.	.
.	.	got	.	.	.	.	.	.
.	.	to	.	.	.	.	.	.
.	.	do	.	.	.	.	.	.
2-VII	G#:maj	_	.	.	211.389	.	voice	2G# 2b# 2dd#
.	.	with	.	.	.	.	.	.
.	.	it?	.	.	.	.	.	.
.	.	.	.	.	.	.	.	.
=89	=89	=89	=89	=89	=89	=89	=89	=89
2i	C#:maj	Who	.	.	212.612	.	voice	2A# 2cc# 2ee#
.	.	takes	.	.	.	.	.	.
.	.	a	.	.	.	.	.	.
2-VII	G#:maj	heart	.	.	213.836	.	voice	2G# 2b# 2dd#
.	.	when	.	.	.	.	.	.
.	.	a	.	.	.	.	.	.
.	.	.	.	.	.	.	.	.
=90	=90	=90	=90	=90	=90	=90	=90	=90
*M2/4	*M2/4	*	*	*	*M2/4	*M2/4	*M2/4	*
2-VI	F#:maj	heart	.	.	215.06	.	voice	2F 2a 2cc
.	.	can	.	.	.	.	.	.
.	.	be	.	.	.	.	.	.
=91	=91	=91	=91	=91	=91	=91	=91	=91
*M4/4	*M4/4	*	*	*	*M4/4	*M4/4	*M4/4	*
2i	C#:maj	bro-	.	(F	216.283	newline	voice	2A# 2cc# 2ee#
.	.	-ken	What's	f)	.	.	.	.
.	.	_	.	.	.	.	.	.
.	.	.	.	.	.	.	.	.
2-VII	G#:maj	.	love	.	217.494	.	voice	2G# 2b# 2dd#
.	.	.	.	.	.	.	.	.
.	.	Ooh	.	.	.	.	.	.
.	.	_	.	.	.	.	.	.
=92	=92	=92	=92	=92	=92	=92	=92	=92
2-VI	F#:maj	ooh	.	.	218.704	.	voice	2F 2a 2cc
.	.	_	.	.	.	.	.	.
.	.	.	.	.	.	.	.	.
.	.	.	got	.	.	.	.	.
.	.	.	to	.	.	.	.	.
.	.	.	do	.	.	.	.	.
2-VII	G#:maj	.	_	.	219.914	.	voice	2G# 2b# 2dd#
.	.	.	with	.	.	.	.	.
.	.	.	it?	.	.	.	.	.
.	.	got	.	.	.	.	.	.
.	.	to	.	.	.	.	.	.
.	.	do	.	.	.	.	.	.
=93	=93	=93	=93	=93	=93	=93	=93	=93
2i	C#:maj	_	.	.	221.125	.	voice	2A# 2cc# 2ee#
.	.	with	.	.	.	.	.	.
.	.	it?	.	.	.	.	.	.
.	.	.	What's	.	.	.	.	.
2-VII	G#:maj	.	love	.	222.335	.	voice	2G# 2b# 2dd#
.	.	.	.	.	.	.	.	.
.	.	.	.	.	.	.	.	.
.	.	but	.	.	.	.	.	.
.	.	a	.	.	.	.	.	.
=94	=94	=94	=94	=94	=94	=94	=94	=94
2-VI	F#:maj	se-	.	.	223.545	.	voice	2F 2a 2cc
.	.	-cond	.	.	.	.	.	.
.	.	hand	.	.	.	.	.	.
.	.	e-	.	.	.	.	.	.
2-VII	G#:maj	-mo-	.	(F	224.755	.	voice	2G# 2b# 2dd#
.	.	-tion	.	f)	.	.	.	.
1r;	N	.	.	.	226.873	.	r	1r;
1r;	N	.	.	.	229.052	.	r	1r;
*-	*-	*-	*-	*-	*-	*-	*-	*-
!!!BillboardChartDate: 1984/09/29
!!!BillboardPeak: 1
!!!BillboardWeeksOnChart: 28
!!!COC: Tina Turner
!!!EMD: Changed staring key to G#m and added keychanges to C#M and A#m. Changed first chord of chord loop in chorus to minor i chord, instead of III. Removed extra measure in second verse. Nat Condit-Schultz 2017/01/13
!!!ENC: Nathaniel Condit-Schultz
!!!EST: Awating manual error checking and editing.
!!!OTL: What's Love Got To Do With It
!!!RDF**harte: Chris Harte's syntax, used by MIREX
!!!RDF**harmony: **recip + pitch class of root + harmonic quality
!!!RDF**leadinstrument: original McGill primary instrumentation annotation
!!!RDF**phrase: newline = linebreak in original McGill transcription
!!!RDF**timestamp: McGill audio timestamp in seconds
!!!RDT: 2017/01/12/
!!!SampleActualRank: 6
!!!SampleID#: 0150
!!!SampleTargetRank: 7
!!!MBID: 51caf173-e21a-45dd-8034-8513bdb8727c
